X:1
T:065 - Jesus, o Bem-amado
T:Letra: W. C. Martin
T:Trad.: Salomão Luiz Ginsburg (1867-1927)
T:Música: Edmund Simon Lorenz (1854-1872)
M:3/4
L:1/8
K:Bb
V:1
F | "Bb"B>A "Gm"G3D |F>=E "F7"_E3A | c>B A3E | "Bb"G>F F3B | d>c B3A | "D"A>G "Eb"HG3G | AB "C7"c3d | "F7"c2 F2 z2 || "Bb"B2 F2 G>F | "F7"F>E E2 z2 | c2 A2 B>A | "Bb"G>F F2 z2 | d2 A2 c>B | "D"A>G "Eb"HG3G | AB "Bb/F"d3B | "F7"Hc2 "Bb"B3 |]
w: 1.~Je-sus, teu No-me sa-tis-faz; Por to-doo or-bees-pa-lhaa paz; Per-fei-to go-zoe vi-da traz, Je-sus, meu bem-a-ma-do! Cris-to, No-me de va-lor! Cris-to, for-te Re-den-tor! Cris-to, su-moe bom Pas-tor, Sou teu e-ter-na-men-te! 
w: 2.~Pois, à mi-nhaal-ma,ó Sal-va-dor, A co-ra-ção tão so-fre-dor Con-ce-des for-ças e vi-gor, Je-sus, meu bem-a-ma-do!  
w: 3.~A-fli-to pe-la ten-ta-ção,  Me for-ta-le-cea tu-a mão; Pros-tra-do,in-vo-co,em o-ra-ção, Je-sus, meu bem-a-ma-do!  
w: 4.~Je-sus, teu No-meé sem i-gual, Tão ca-ri-nho-so, tão le-al; És bom Pas-tor, ce-les-ti-al, Je-sus, meu bem-a-ma-do!
W:
W:
W: 1. Jesus, teu Nome satisfaz;
W: Por todo o orbe espalha a paz;
W: Perfeito gozo e vida traz,
W: Jesus, meu bem-amado!
W: 
W: 2. Pois, à minha alma, ó Salvador,
W: A coração tão sofredor
W: Concedes forças e vigor,
W: Jesus, meu bem-amado!
W: 
W: 3. Aflito pela tentação, 
W: Me fortalece a tua mão;
W: Prostrado, invoco, em oração,
W: Jesus, meu bem-amado!
W: 
W: 
W: 
W: 4. Jesus, teu Nome é sem igual,
W: Tão carinhoso, tão leal;
W: És bom Pastor, celestial,
W: Jesus, meu bem-amado!
W: 
W:    (Estribilho)
W:    Cristo, Nome de valor!
W:    Cristo, forte Redentor!
W:    Cristo, sumo e bom Pastor,
W:    Sou teu eternamente!
W: 
W: 





